source/svgs/bowtie/uE927-chart-stacked-area.svg

<svg xmlns="http://www.w3.org/2000/svg" viewBox="0 0 448 448" enable-background="new 0 0 448 448"><path d="M0 0v448h448v-448h-448zm416 416l-144-144-144 144-96-96v-45.25l96 96 144-144 144 144v45.25zm0-256l-32-32-64 64-112-112-176 176v-224h384v128z"/></svg>

<svg xmlns="http://www.w3.org/2000/svg" viewBox="0 0 448 448"><path d="M0 0v448h448V0H0zm416 416L272 272 128 416l-96-96v-45.25l96 96 144-144 144 144V416zm0-256l-32-32-64 64L208 80 32 256V32h384v128z"/></svg>
